src/assets/image/menu_logo.svg

<svg width="69" height="50" viewBox="0 0 69 50" fill="none" xmlns="http://www.w3.org/2000/svg">
<path d="M68.9959 5.53851V0H47.8359V5.53851H55.6559V14.7694C55.6559 17.3184 57.7154 19.3848 60.2559 19.3848H61.1759V5.53851H68.9959Z" fill="white"/>
<path d="M61.1782 22.1538H55.6582V27.6923H61.1782V22.1538Z" fill="white"/>
<path d="M29.4377 27.6923C30.962 27.6923 32.1977 26.4524 32.1977 24.923C32.1977 23.3936 30.962 22.1538 29.4377 22.1538C27.9134 22.1538 26.6777 23.3936 26.6777 24.923C26.6777 26.4524 27.9134 27.6923 29.4377 27.6923Z" fill="white"/>
<path d="M47.8389 27.6919H44.1178C42.6932 27.6919 41.3489 27.0297 40.4779 25.8986L34.0391 17.5381H40.0801L47.8389 27.6919Z" fill="white"/>
<path d="M45.5375 9.46152C45.5375 11.689 44.1575 16.1538 40.0769 17.5384C39.2647 17.8525 38.1776 18 37.2576 18C36.3376 18 34.0377 17.5384 34.0377 17.5384C37.902 16.7362 40.0177 12.9231 40.0177 9.69231C40.0177 7.38461 38.4077 5.53846 36.1076 5.53846C34.0377 5.53845 32.1977 7.21153 32.1977 9.46153V19.3846H31.2777C28.7372 19.3846 26.6777 17.3182 26.6777 14.7692V9.46152C26.6777 9.04613 26.7237 7.56921 26.8157 7.15383C27.7985 3.29193 31.5898 0 35.6476 0C35.9083 0 36.077 0 36.3376 0C41.6392 0.118207 45.5375 4.36049 45.5375 9.46152Z" fill="white"/>
<path d="M24.841 27.6923H22.3194C20.497 27.6923 18.8464 26.6129 18.1108 24.9399L12.4208 12L6.73115 24.9399C5.99555 26.6128 4.34495 27.6923 2.52252 27.6923H0.000976562L11.9612 0H12.8812L24.841 27.6923Z" fill="white"/>
<path d="M12.4211 22.1538L9.66113 27.6923H15.1811L12.4211 22.1538Z" fill="#FF5555"/>
<path d="M11.9791 41.1541H14.5796V37.0278H8.22656C6.01743 37.0278 4.22656 38.8187 4.22656 41.0278V46.0001C4.22656 48.2093 6.01742 50.0001 8.22656 50.0001H14.5796V45.7695H11.9791V47.5632H6.80256V39.4648H11.9791V41.1541Z" fill="white"/>
<path d="M17.6844 46.0001C17.6844 48.2093 19.4753 50.0001 21.6844 50.0001H23.278V47.5632H20.2604V31.834H17.6844V46.0001Z" fill="white"/>
<path d="M26.159 34.4186H28.735V31.834H26.159V34.4186ZM26.159 50.0001H28.735V37.0278H26.159V50.0001Z" fill="white"/>
<path d="M39.5111 50.0001H42.1116V41.0278C42.1116 38.8187 40.3207 37.0278 38.1116 37.0278H31.7585V50.0001H34.3345V39.4648H39.5111V50.0001Z" fill="white"/>
<path d="M45.3122 33.1263C45.3122 33.8376 45.8889 34.4186 46.6002 34.4186C47.3116 34.4186 47.8882 33.8376 47.8882 33.1263C47.8882 32.4149 47.3116 31.834 46.6002 31.834C45.8889 31.834 45.3122 32.4149 45.3122 33.1263ZM45.3122 50.0001H47.8882V37.0278H45.3122V50.0001Z" fill="white"/>
<path d="M58.6643 41.1541H61.2648V37.0278H54.9118C52.7026 37.0278 50.9118 38.8187 50.9118 41.0278V46.0001C50.9118 48.2093 52.7026 50.0001 54.9118 50.0001H61.2648V45.7695H58.6643V47.5632H53.4878V39.4648H58.6643V41.1541Z" fill="white"/>
</svg>

<svg width="69" height="50" fill="none" xmlns="http://www.w3.org/2000/svg"><path d="M68.996 5.539V0h-21.16v5.539h7.82v9.23a4.608 4.608 0 0 0 4.6 4.616h.92V5.539h7.82ZM61.178 22.154h-5.52v5.538h5.52v-5.538ZM29.438 27.692c1.524 0 2.76-1.24 2.76-2.769 0-1.53-1.236-2.77-2.76-2.77a2.765 2.765 0 0 0-2.76 2.77c0 1.53 1.235 2.77 2.76 2.77ZM47.839 27.692h-3.721a4.594 4.594 0 0 1-3.64-1.793l-6.439-8.36h6.041l7.759 10.153Z" fill="#fff"/><path d="M45.538 9.462c0 2.227-1.38 6.692-5.461 8.076-.812.314-1.9.462-2.82.462-.92 0-3.22-.462-3.22-.462 3.865-.802 5.98-4.615 5.98-7.846 0-2.307-1.61-4.154-3.91-4.154-2.07 0-3.91 1.674-3.91 3.924v9.923h-.92c-2.54 0-4.6-2.067-4.6-4.616V9.462c0-.416.047-1.893.139-2.308C27.799 3.292 31.59 0 35.648 0h.69c5.301.118 9.2 4.36 9.2 9.462ZM24.841 27.692h-2.522a4.6 4.6 0 0 1-4.208-2.752L12.42 12 6.73 24.94a4.6 4.6 0 0 1-4.208 2.752H0L11.961 0h.92l11.96 27.692Z" fill="#fff"/><path d="m12.421 22.154-2.76 5.538h5.52l-2.76-5.538Z" fill="#F55"/><path d="M11.98 41.154h2.6v-4.126H8.227a4 4 0 0 0-4 4V46a4 4 0 0 0 4 4h6.353v-4.23h-2.6v1.793H6.802v-8.098h5.176v1.69ZM17.684 46a4 4 0 0 0 4 4h1.594v-2.437H20.26V31.834h-2.576V46ZM26.159 34.419h2.576v-2.585h-2.576v2.585Zm0 15.581h2.576V37.028h-2.576V50ZM39.511 50h2.6v-8.972a4 4 0 0 0-4-4H31.76V50h2.575V39.465h5.177V50ZM45.312 33.126c0 .712.577 1.293 1.288 1.293a1.292 1.292 0 0 0 0-2.585c-.711 0-1.288.58-1.288 1.292Zm0 16.874h2.576V37.028h-2.576V50ZM58.664 41.154h2.6v-4.126h-6.352a4 4 0 0 0-4 4V46a4 4 0 0 0 4 4h6.353v-4.23h-2.6v1.793h-5.177v-8.098h5.176v1.69Z" fill="#fff"/></svg>
